X: 31917
T: Peacock's Feathers, The
R: hornpipe
M: 4/4
K: Dmajor
|:AG|FEDF A3B|defd B2ef|gefd edBd|AGFD E3G|
FEDF A3B|defd B2ef|gefd edBd|Adfe d2:|
|:fg|afge fdec|defd B2ef|gefd edBd|AGFD E3G|
FEDF A3B|defd B2ef|gefd edBd|Adfe d2:|

